Costumes/G-story-3.svg

<?xml version="1.0" encoding="utf-8"?>
<!-- Generator: Adobe Illustrator 18.0.0, SVG Export Plug-In . SVG Version: 6.00 Build 0)  -->
<!DOCTYPE svg PUBLIC "-//W3C//DTD SVG 1.1//EN" "http://www.w3.org/Graphics/SVG/1.1/DTD/svg11.dtd">
<svg version="1.1" id="Layer_2" xmlns="http://www.w3.org/2000/svg" xmlns:xlink="http://www.w3.org/1999/xlink" x="0px" y="0px"
	 viewBox="0 0 42.8 48.2" enable-background="new 0 0 42.8 48.2" xml:space="preserve">
<g>
	<path fill="#41A2F2" d="M42.8,26.3c-0.1,1-0.5,1.3-1.4,1.2c-1.6-0.1-2.5,1.4-2.6,2.9c-0.1,1.1,0.1,2.2,0.1,3.3
		c0.1,2.3,0.2,4.7,0.1,7c0,0.7-0.7,1.4-1.2,1.9c-4.3,4.5-9.9,5.4-15.8,5.4c-4,0-7.4-1.5-10.6-3.7c-0.7-0.5-1.4-0.8-2.1-1.3
		c-3-2.5-5.5-5.4-7-9C0.7,30.3,0.1,26.3,0,22.3c-0.1-2.7,0.5-5.2,1.7-7.6c0.5-1,1-2,1.5-3c1-2,2.4-3.7,4.2-5
		c1.4-1.1,2.7-2.2,4.1-3.2c2.3-1.6,5-2.3,7.7-2.8C20.7,0.3,22.3,0,23.8,0c1.8,0.1,3.7,0.4,5.5,0.8c1.3,0.3,2.6,0.8,4,1.3
		c-0.1-0.4-0.1-0.8-0.2-1.2c-0.1-0.5,0-0.7,0.5-0.8c0.9-0.1,1.9-0.1,2.8,0c0.2,0,0.5,0.3,0.5,0.5c0.1,3.1,0.2,6.3,0.2,9.4
		c0,0.9-0.2,1-1.1,1c-0.5,0-1-0.1-1.5-0.1c-0.6,0-0.8-0.3-0.8-0.7c-0.2-2.1-1.3-3.8-3.1-4.9c-1.1-0.7-2.4-1-3.7-1.3
		c-2.9-0.6-5.8-0.3-8.6,0.9c-2.6,1.1-4.6,3-6.3,5.3c-1,1.3-2.1,2.7-2.7,4.3c-0.8,2.1-1.3,4.4-1.6,6.7c-0.3,3.2-0.3,6.4,0.7,9.5
		c0.8,2.3,1.5,4.7,2.8,6.8c1.9,3,4.4,5.8,8.2,6.5c3.2,0.5,6.4,0.5,9.4-0.7c2-0.7,2.8-2,2.8-4.1c0-3,0.1-6,0.2-8.9
		c0-1.2-0.5-1.8-1.7-2C29.7,28,29,28,28.3,28c-0.2,0-0.4-0.2-0.4-0.3c0-0.6-0.2-1.7-0.1-2.3c0,0,0,0,0,0c0,0,0-0.1,0-0.1
		c0.6-0.1,1.2-0.3,1.8-0.3c3.9-0.1,7.8-0.3,11.8-0.3C42.8,24.6,42.9,24.9,42.8,26.3z"/>
</g>
</svg>

<?xml version="1.0" encoding="UTF-8" standalone="no"?>
<!-- Generator: Adobe Illustrator 18.0.0, SVG Export Plug-In . SVG Version: 6.00 Build 0)  -->

<svg
   version="1.1"
   id="Layer_2"
   x="0px"
   y="0px"
   viewBox="0 0 42.839009 47.999999"
   enable-background="new 0 0 42.8 48.2"
   xml:space="preserve"
   sodipodi:docname="G-story-3.svg"
   width="42.839008"
   height="48"
   xmlns:inkscape="http://www.inkscape.org/namespaces/inkscape"
   xmlns:sodipodi="http://sodipodi.sourceforge.net/DTD/sodipodi-0.dtd"
   xmlns="http://www.w3.org/2000/svg"
   xmlns:svg="http://www.w3.org/2000/svg"><defs
   id="defs9" /><sodipodi:namedview
   id="namedview7"
   pagecolor="#ffffff"
   bordercolor="#000000"
   borderopacity="0.25"
   inkscape:showpageshadow="2"
   inkscape:pageopacity="0.0"
   inkscape:pagecheckerboard="0"
   inkscape:deskcolor="#d1d1d1" />
<g
   id="g4"
   transform="translate(0.01075101)">
	<path
   fill="#41a2f2"
   d="m 42.8,26.3 c -0.1,1 -0.5,1.3 -1.4,1.2 -1.6,-0.1 -2.5,1.4 -2.6,2.9 -0.1,1.1 0.1,2.2 0.1,3.3 0.1,2.3 0.2,4.7 0.1,7 0,0.7 -0.7,1.4 -1.2,1.9 C 33.5,47.1 27.9,48 22,48 18,48 14.6,46.5 11.4,44.3 10.7,43.8 10,43.5 9.3,43 6.3,40.5 3.8,37.6 2.3,34 0.7,30.3 0.1,26.3 0,22.3 c -0.1,-2.7 0.5,-5.2 1.7,-7.6 0.5,-1 1,-2 1.5,-3 1,-2 2.4,-3.7 4.2,-5 1.4,-1.1 2.7,-2.2 4.1,-3.2 2.3,-1.6 5,-2.3 7.7,-2.8 1.5,-0.4 3.1,-0.7 4.6,-0.7 1.8,0.1 3.7,0.4 5.5,0.8 1.3,0.3 2.6,0.8 4,1.3 C 33.2,1.7 33.2,1.3 33.1,0.9 33,0.4 33.1,0.2 33.6,0.1 34.5,0 35.5,0 36.4,0.1 c 0.2,0 0.5,0.3 0.5,0.5 0.1,3.1 0.2,6.3 0.2,9.4 0,0.9 -0.2,1 -1.1,1 -0.5,0 -1,-0.1 -1.5,-0.1 -0.6,0 -0.8,-0.3 -0.8,-0.7 C 33.5,8.1 32.4,6.4 30.6,5.3 29.5,4.6 28.2,4.3 26.9,4 24,3.4 21.1,3.7 18.3,4.9 15.7,6 13.7,7.9 12,10.2 11,11.5 9.9,12.9 9.3,14.5 8.5,16.6 8,18.9 7.7,21.2 c -0.3,3.2 -0.3,6.4 0.7,9.5 0.8,2.3 1.5,4.7 2.8,6.8 1.9,3 4.4,5.8 8.2,6.5 3.2,0.5 6.4,0.5 9.4,-0.7 2,-0.7 2.8,-2 2.8,-4.1 0,-3 0.1,-6 0.2,-8.9 0,-1.2 -0.5,-1.8 -1.7,-2 C 29.7,28 29,28 28.3,28 c -0.2,0 -0.4,-0.2 -0.4,-0.3 0,-0.6 -0.2,-1.7 -0.1,-2.3 0,0 0,0 0,0 0,0 0,-0.1 0,-0.1 0.6,-0.1 1.2,-0.3 1.8,-0.3 3.9,-0.1 7.8,-0.3 11.8,-0.3 1.4,-0.1 1.5,0.2 1.4,1.6 z"
   id="path2" />
</g>
</svg>
